X:0842
T:Prince Adolphus' Fancy.
M:C|
L:1/8
Q:1/2=86
I: :: :|
Z:Jack Campin * www.campin.me.uk * 2009
K:D
a3 f d2d2|efge fgfd|a3 f d2d2|cdec d2D2:|
AdAd BdBd|AdAd dfaf|AdAd BdBd|dfaf d2D2:|
<end>
<start>
